X: 22688
T: Lally's Fancy
R: reel
M: 4/4
K: Fmajor
|:BAGF DGGE|!turn!F2CFA,F Ac|BAGF DCB,A,|B,DCA, !breath!B,G,G,A|
BAGF DGGE|!turn!F2CFA,F Ac|BAGF DCB,A,|B,DCA, !breath!B,G,G,2:|
B,CDE !turn!F2 DF|ECGC ACGC|G,A,B,C DEFD|ECGE !turn!C2C2|
G,A,B,C DEFD|ECGC ACGC|B,G,G,A, B,CDF|ECGE !turn!C2C2||
K:G
B,G,G,A, B,CDB,|CDEG|!turn!FDCA, B,G,G,A, B,CDg, ECDC B,G,G,A,|
B,CDB, CDEC|DG,B,D CA,!turn!A,2|B,CDG (3EFG AG|FDCA, [G,3D] A||

